delete-circle.svg

<svg  viewBox="0 0 24 24" fill="currentColor"><path  d="M12,2C17.53,2 22,6.47 22,12C22,17.53 17.53,22 12,22C6.47,22 2,17.53 2,12C2,6.47 6.47,2 12,2M17,7H14.5L13.5,6H10.5L9.5,7H7V9H17V7M9,18H15A1,1 0 0,0 16,17V10H8V17A1,1 0 0,0 9,18Z"/></svg>

<svg fill="currentColor" viewBox="0 0 24 24"><path d="M12 2c5.53 0 10 4.47 10 10s-4.47 10-10 10S2 17.53 2 12 6.47 2 12 2m5 5h-2.5l-1-1h-3l-1 1H7v2h10zM9 18h6a1 1 0 0 0 1-1v-7H8v7a1 1 0 0 0 1 1"/></svg>
